X:1
T:Are You Ready Yet
R:reel
M:4/4
L:1/8
K:Em
B2AF EGFE|FDFA dAFA|BAAF EGFE|FGFD ~B3A|
B2AF EGFE|FDFA dAFA|BAAF EGFE|FGFD ~B3c:|
Beed deef|gefa gfeg|fdBA B2fB|gBfB edBA|
Beed deez|gefa g4|bage agfd|Bgfd e4:|
BAGF ~G3A|dBAG FEDF|E2BA (3Bcd eg|ef~f2 e2fe|
edBe dBAF|BAGF EFGA|BedB AcBA|GAFA E4:|
</abc>
